X: 39414
T: Tapping Toes
R: jig
M: 6/8
K: Dmajor
|:GAG EDB,|G,B,D GAB|c2 A Bge|dBG AGE|
GAG EDB,|G,B,D GAB|c2 A Bge|dBG G2 D:|
|:GBd gag|fed edB|gdB GBd|AGE EDE|
GBd gag|fed edB|gdB GAB|AGF G2 D:|

